X: 3
T: Garrett Barry's
R: reel
M: 4/4
L: 1/8
K: Gmaj
~G3B d2Bd|edBe dBAB|~G3B d3B|AEGE DGBA|~G3B d2Bd|edBA GABd|edcB cdef|gedB AGAB:|~g3b a2ge|dGBA GABd|~g3a gedg|eaag a2ga|b2gb abge|dGBA GABd|edcB cdef|gedB AGAB:|


Tune 3434	Setting 28600

